X: 1
T: Or S Do Bheath Abhaile
M: 2/4
L: 1/8
R: polka
K: Gmix
G2 GF/G/|AGFD|F2 FF/G/|FCDF|
G2 GF/G/|AGAc-|c3 c|dcAF|G2G2:|
